X: 305631
M: 6/8
L: 1/8
K: Bb
d |\
cd=e fed | dcc cBA | BAB dcB | BAA A2c |:\
fff faf | dgg gbg | faf =ede | gff "^D.C."f2 :|
d |\
fab bag | g^ff f2d | e2e edc | cBB B2d ::\
g/^f/g/a/b/a/ g=fd | e/d/e/f/g/f/ edc |1 BAG BAG | B3 B2B :|2 Bcg D^g^f | g3 g2 :|


